!!!COM: Peter Cornelius
!!!CNT: Deutsch
!!!TXO: Deutsch
!!!OTL: In Lust und Schmerzen
!!!LYR: Cornelius
!!!OPR: Three Songs
!!!OPS: Op.4
!!!ONM: No. 1
!!!ENC: Ben Fuhrman
!!!YOR: CD Sheet Music, Mid-Romantic German Lieder: The Ultimate Collection.
!!!YOR: CD Sheet Music, LLC 2001
!!!ODT: 1854
!!NB: Only vocal melody encoded.
!!NB: First instance of melodic material only encoded.
!!created: 2/2/10 1:33PM
!!proofed and posted: 2/2/10 1:40PM
**kern	**silbe
*clef G2	*
*k[b-e-a-d-]	*
*M2/4	*
*MM[Leidenschaftlich bewegt]	*
=2	=2
4r	.
8r	.
{8e-	{In
=3	=3
4.f	Lust
8a-	und
=4	=4
4cc	Schmer-
8a-	-zen,
16r	.
16a-	in
=5	=5
4ff	Kampf
4ee-	und
=6	=6
4ddn	Ruh'
8.r	.
16ddn	steht
=7	=7
4gg	eins
8.r	fest
16ddn	im
=8	=8
4ee-	Her-
4cc	-zen,
=9	=9
8r	.
8cc	und
(12cc	das
12bb-)	|
12cc	bist
=10	=10
[2ee-	du!
=11	=11
2ee-_	|
=12	=12
4ee-]}	|}
8.r	.
{16cc	{Das
=13	=13
4cc	sind
8.cc	dei-
16cc	-ne
=14	=14
4cc	Au-
8.b-	-gen,
16b-	das
=15	=15
4bn	ist
4cc	dein
=16	=16
4.ff	Mund,
16r	.
16ddn	das
=17	=17
4ee-	ist
8.ee-	dei-
16ee-	-ner
=18	=18
4dd-	See-
8b-	-le
16r	.
16e-	tief-
=19	=19
4ee-	-in-
8.ee-	-ner-
16ee-	-ster
=20	=20
4dd-	Grund.
8.r	.
16b-	Das
=21	=21
4b-	ist
8.b-	dei-
16b-	-ne
=22	=22
4b-	Lie-
8f	-be,
16r	.
16b-	sie
=23	=23
4b-	winkt
4b-	mir
=24	=24
4a-}	zu,}
8r	.
{8a-	{in
=25	=25
4dd-	Lust
4ee-	und
=26	=26
4dd-	Lei-
8cc-	-den,
8a-	in
=27	=27
4ff-	Kampf
4ff-	und
=28	=28
4ff-	Ruh',
4ee-	in
=29	=29
4ddn	Lust
4dd-	und
=30	=30
4cc	Lei-
8b-	-den,
8a-	in
=31	=31
([2aa-	Kampf
=32	=32
8aa-]	|
8ee-)	|
(8cc	und
8b-)	|
=33	=33
[2a-	Ruh'.
=34	=34
2a-_	|
=35	=35
4a-]}	|}
4r	.
=36	=36
2r	.
=37	=37
{4cc	{Gott,
8.cc	der
16cc	die
=38	=38
4dd-	Wel-
8cc	-ten
8ff	im
=39	=39
4.cc	Her-
8b-	-zen
=40	=40
4.ee-	tra2gt,
8a-	hat
=41	=41
4.dd-	mir
8cc	ins
=42	=42
4b-	Herz
8a-	dei-
8g	-ne
=43	=43
4cc	Lie-
8a-	-be
8f	ge-
=44	=44
4g}	-legt;}
4r	.
=45	=45
*k[b-]	*
{4cc	{Gott
8.cc	hielt
16cc	die
=46	=46
4ddn	Welt
8cc	ei-
8ff	-nes
=47	=47
4bn	hat
4bn	auch
=50	=50
4ee	mir
8cc	dei-
8a	-ne
=51	=51
4cc	Lie-
8cc	-be
8b-	be-
=52	=52
4.a}	-schert.}
8r	.
=53	=53
8.r	.
{16an	{Und
8.an	ob
16an	die
=54	=54
2dd	Welt
=55	=55
8.a	uns
16f	zu
8g	tren-
8g#	-nen
=56	=56
4.a	meint,
8a	wir
=57	=57
4.bn	sind
8cc#	in
=58	=58
4.ff#	Gott
8dd	treu-
=59	=59
4dd	-in-
8.dd	-nig
16cc	ver-
=60	=60
4bn}	-eint.}
4r	.
!! rest to measure 68
=68	=68
*k[b-e-a-d-]	*
4r	.
8r	.
{8e-	{In
=69	=69
4.f	Lust
8g	und
=70	=70
4cc	Schmer-
8.a-	-zen,
16a-	in
=71	=71
4ff	Kampf
4ee-	und
=72	=72
4ddn	Ruh'
8r	.
8ddn	steht
=73	=73
4gg	eins
8.ff	fest
16ddn	im
=74	=74
4ee-	Her-
4cc	-zen,
=75	=75
8r	.
8cc	und
(12cc	das
12bb-)	|
12a-	bist
=76	=76
[2ee-	du!
=77	=77
2ee-_	|
=78	=78
4ee-]}	|}
8.r	.
{16cc	{Das
=79	=79
4cc	sind
8.cc	dei-
16cc	-ne
=80	=80
4cc	Au-
8.b-	-gen,
16b-	das
=81	=81
4bn	ist
4cc	dein
=82	=82
4.ff	Mund,
16r	.
16ddn	das
=83	=83
4ee-	ist
8.ee-	dei-
16ee-	-ner
=84	=84
4dd-	See-
8b-	-le
16r	.
16e-	tief-
=85	=85
4ee-	-in-
8.ee-	-ner
16ee-	-ster
=86	=86
4dd-	Grund,
8.r	.
16b-	das
=87	=87
4b-	ist
8.b-	dei-
16b-	-ne
=88	=88
4b-	Lie-
8f	-be,
16r	.
16b-	sie
=89	=89
4b-	winkt
4b-	mir
=90	=90
4.a-}	zu}
16r	.
{16a-	{in
=91	=91
4dd-	Lust
4dd-	und
=92	=92
4dd-	Lei
8cc-	-den,
8a-	in
=93	=93
4ff-	Kampf
4ff-	und
=94	=94
4ff-	Ruh',
4ee-	in
=95	=95
4ddn	Lust
4dd-	und
=96	=96
4cc	Lei-
8b-	-den,
8a-	in
=97	=97
[2aa-	Kampf
=98	=98
(8aa-]	|
8ddn)	|
(8ff	und
8ee-)	|
=99	=99
[2ee-	Ruh',
=100	=100
4ee-]	|
(8.ff	in
16ee-)	|
=101	=101
[2ee-	Kampf
=102	=102
4ee-]	|
(8.ee-	und
16dd-)	|
=103	=103
[2cc	Ruh'
=104	=104
2cc_	|
=105	=105
4cc]}	|}
4r	.
==	==
*-	*-
